X:1
T:Non, je ne regrette rien
C:Charles Dumont
Z:All Rights Reserved
L:1/8
M:4/4
K:G
V:1 treble 
V:1
"G" d6- (3ded |"D7" d8 | d4- (3dfe (3ddc |"G" B6- (3Bcd |"C" e6- (3efe |"C+" e6- (3efe | %6
w: Non! * Rien de|rien,|Non! * Je ne re- gret- te|rien, * Ni le|bien * qu'on m'a|fait, * Ni le|
w: ||||||
"Am" e4- (3eef (3gfg |"D7" a8 |"G" d6- (3ded |"D7" d8 | d4- (3dfe (3ddc |"G" B6- (3Bcd | %12
w: mal, * tout ça m'est bien é-|gal!|Non! * Rien de|rien,|Non! * Je ne re- gret- te|rien, * C'est pa-|
w: |||||* * Car ma|
"C" e6- (3efe |"Am" e6- (3egf |O"D7" f4- (3ffg (3agf |"G""^N.C." g4- (3ggd (3edc || %16
w: yé, * ba- la-|yé, * ou- bli-|é, * Je me fous du pas-|sé! * A- vec mes sou- ven-|
w: vie, * car mes|joies, * au- jour­-|||
"G" B4- (3Bgd (3edc | B4-"D7" (3Bec (3dcB | A4- (3Aed (3cB^A |"G" B4- (3Bgd (3edc | %20
w: irs * J'ai al- lum- é le|feu, * Mes cha- grins, mes plai-|sirs, * Je n'ai plus be- soin|d'eux! * Bal- ay- és les a-|
w: ||||
 B4- (3Bgd (3edc | B4-"D7" (3Bfc (3dcB | A4-"^rall." (3Aed (3cBA |"G" G8!D.C.! || %24
w: mours, * Et tous leurs tré- mo-|los, * Ba- lay- és pour tou-|jours, * Je re- pars à zé-|ro.|
w: ||||
O"D7""^N.C" f4- (3ffg (3agf |"G" g8- |"Gdim" g8 |"G6" z8 |] %28
w: ||||
w: d'hui * ça com- mence a- vec|toi!|||

